img/pomodoro-editor-icon.svg

<?xml version="1.0" encoding="UTF-8"?>
<svg width="147mm" height="136mm" version="1.1" viewBox="0 0 147 136" xmlns="http://www.w3.org/2000/svg" xmlns:cc="http://creativecommons.org/ns#" xmlns:dc="http://purl.org/dc/elements/1.1/" xmlns:rdf="http://www.w3.org/1999/02/22-rdf-syntax-ns#" xmlns:xlink="http://www.w3.org/1999/xlink">
 <defs>
  <marker id="Arrow1Lstart" style="overflow:visible" orient="auto">
   <path transform="matrix(.8 0 0 .8 10 0)" d="m0 0 5-5-17.5 5 17.5 5z" style="fill-rule:evenodd;stroke-width:1pt;stroke:#000"/>
  </marker>
  <radialGradient id="radialGradient861" cx="147.25" cy="-58.23" r="15.737" gradientTransform="matrix(1.918 0 0 2.1453 -176.82 202.86)" gradientUnits="userSpaceOnUse">
   <stop style="stop-color:#fff" offset="0"/>
   <stop style="stop-color:#fff;stop-opacity:0" offset="1"/>
  </radialGradient>
 </defs>
 <metadata>
  <rdf:RDF>
   <cc:Work rdf:about="">
    <dc:format>image/svg+xml</dc:format>
    <dc:type rdf:resource="http://purl.org/dc/dcmitype/StillImage"/>
    <dc:title/>
   </cc:Work>
  </rdf:RDF>
 </metadata>
 <g transform="translate(-.4009 -.72962)">
  <path d="m57.124 34.874c-66.738 10.643-43.682 85.033-6.949 96.517 25.581 7.6638 49.525 10.391 80.715-16.303 11.819-11.237 27.697-44.929 2.6727-71.928-9.8606-9.0015-17.707-19.939-40.625-16.571z" style="fill:#f00;stroke-width:.26458px;stroke:#000"/>
  <path d="m59.054 43.564c11.512 0.79257 20.777-0.91146 29.818-2.8638-3.3772-0.89287 10.934-14.656 16.401-21.985l-15.171 9.861 8.7232-27.687-22.377 31.859-9.1024-23.515c-3.08-0.60843-5.9752-0.29297-8.3439 2.6549l6.0492 19.55-19.852-8.2445 17.216 12.21s-27.51-12.798-40.582-8.3439c-10.267 3.4986-21.239 24.652-21.239 24.652s14.588-15.802 24.476-17.753c11.657-2.2992 34.904 6.3804 33.983 9.6046z" style="fill:#008000;stroke-width:.37546px;stroke:#000"/>
  <path d="m74.097 110.89c19.01 1.2083 54.639-0.35365 65.95-42.775-55.973-46.781-85.405-44.481-65.95 42.775z" style="fill:url(#radialGradient861);opacity:.63022"/>
  <path d="m47.605 62.913-19.153 10.772 13.894 22.529" style="fill:none;stroke-width:3;stroke:#000"/>
  <path d="m45.97 107.98 15.502-50.247" style="fill:none;marker-mid:url(#Arrow1Lstart);stroke-width:3;stroke:#000"/>
  <path d="m67.557 74.706 12.027 18.391-22.719 13.582" style="fill:none;stroke-width:3;stroke:#000"/>
  <text transform="rotate(-35.445)" x="1.6967131" y="160.41698" style="fill:#000000;font-family:Verdana;font-size:19.535px;line-height:1.25;stroke-width:.48838" xml:space="preserve"><tspan x="1.6967131" y="160.41698" style="font-family:Verdana;stroke-width:.48838">Editor</tspan></text>
 </g>
</svg>

<?xml version="1.0" encoding="UTF-8" standalone="no"?>
<svg
   xmlns:dc="http://purl.org/dc/elements/1.1/"
   xmlns:cc="http://creativecommons.org/ns#"
   xmlns:rdf="http://www.w3.org/1999/02/22-rdf-syntax-ns#"
   xmlns:svg="http://www.w3.org/2000/svg"
   xmlns="http://www.w3.org/2000/svg"
   xmlns:sodipodi="http://sodipodi.sourceforge.net/DTD/sodipodi-0.dtd"
   xmlns:inkscape="http://www.inkscape.org/namespaces/inkscape"
   width="147mm"
   height="147mm"
   version="1.1"
   viewBox="0 0 147 147"
   id="svg863"
   sodipodi:docname="pomodoro-editor-icon.svg"
   inkscape:version="1.0.2 (e86c8708, 2021-01-15)">
  <sodipodi:namedview
     pagecolor="#ffffff"
     bordercolor="#666666"
     borderopacity="1"
     objecttolerance="10"
     gridtolerance="10"
     guidetolerance="10"
     inkscape:pageopacity="0"
     inkscape:pageshadow="2"
     inkscape:window-width="1920"
     inkscape:window-height="1035"
     id="namedview865"
     showgrid="false"
     inkscape:zoom="1.2023243"
     inkscape:cx="277.79528"
     inkscape:cy="257.00787"
     inkscape:window-x="2230"
     inkscape:window-y="116"
     inkscape:window-maximized="0"
     inkscape:current-layer="svg863" />
  <defs
     id="defs841">
    <marker
       id="Arrow1Lstart"
       style="overflow:visible"
       orient="auto">
      <path
         transform="matrix(0.8,0,0,0.8,10,0)"
         d="M 0,0 5,-5 -12.5,0 5,5 Z"
         style="fill-rule:evenodd;stroke:#000000;stroke-width:1pt"
         id="path833" />
    </marker>
    <radialGradient
       id="radialGradient861"
       cx="147.25"
       cy="-58.23"
       r="15.737"
       gradientTransform="matrix(1.918,0,0,2.1453,-176.82,202.86)"
       gradientUnits="userSpaceOnUse">
      <stop
         style="stop-color:#fff"
         offset="0"
         id="stop836" />
      <stop
         style="stop-color:#fff;stop-opacity:0"
         offset="1"
         id="stop838" />
    </radialGradient>
  </defs>
  <metadata
     id="metadata843">
    <rdf:RDF>
      <cc:Work
         rdf:about="">
        <dc:format>image/svg+xml</dc:format>
        <dc:type
           rdf:resource="http://purl.org/dc/dcmitype/StillImage" />
        <dc:title></dc:title>
      </cc:Work>
    </rdf:RDF>
  </metadata>
  <g
     transform="translate(-0.4009,4.5620462)"
     id="g861">
    <path
       d="m 57.124,34.874 c -66.738,10.643 -43.682,85.033 -6.949,96.517 25.581,7.6638 49.525,10.391 80.715,-16.303 11.819,-11.237 27.697,-44.929 2.6727,-71.928 -9.8606,-9.0015 -17.707,-19.939 -40.625,-16.571 z"
       style="fill:#ff0000;stroke:#000000;stroke-width:0.26458px"
       id="path845" />
    <path
       d="m 59.054,43.564 c 11.512,0.79257 20.777,-0.91146 29.818,-2.8638 -3.3772,-0.89287 10.934,-14.656 16.401,-21.985 l -15.171,9.861 8.7232,-27.687 -22.377,31.859 -9.1024,-23.515 c -3.08,-0.60843 -5.9752,-0.29297 -8.3439,2.6549 l 6.0492,19.55 -19.852,-8.2445 17.216,12.21 c 0,0 -27.51,-12.798 -40.582,-8.3439 -10.267,3.4986 -21.239,24.652 -21.239,24.652 0,0 14.588,-15.802 24.476,-17.753 11.657,-2.2992 34.904,6.3804 33.983,9.6046 z"
       style="fill:#008000;stroke:#000000;stroke-width:0.37546px"
       id="path847" />
    <path
       d="m 74.097,110.89 c 19.01,1.2083 54.639,-0.35365 65.95,-42.775 C 84.074,21.334 54.642,23.634 74.097,110.89 Z"
       style="opacity:0.63022;fill:url(#radialGradient861)"
       id="path849" />
    <path
       d="M 47.605,62.913 28.452,73.685 42.346,96.214"
       style="fill:none;stroke:#000000;stroke-width:3"
       id="path851" />
    <path
       d="M 45.97,107.98 61.472,57.733"
       style="fill:none;stroke:#000000;stroke-width:3;marker-mid:url(#Arrow1Lstart)"
       id="path853" />
    <path
       d="M 67.557,74.706 79.584,93.097 56.865,106.679"
       style="fill:none;stroke:#000000;stroke-width:3"
       id="path855" />
    <text
       transform="rotate(-35.445)"
       x="1.6967131"
       y="160.41698"
       style="font-size:19.535px;line-height:1.25;font-family:Verdana;fill:#000000;stroke-width:0.48838"
       xml:space="preserve"
       id="text859"><tspan
         x="1.6967131"
         y="160.41698"
         style="font-family:Verdana;stroke-width:0.48838"
         id="tspan857">Editor</tspan></text>
  </g>
</svg>
